X:67
T: Graf und Nonne (Die Nonne)
N: Q0155D
O: Osteuropa, Tschechoslowakei, Kremnitz, Kuneschau
R: Ballade, Standesunterschied, vergebliche Werbung, Liebes - Lied
M: 2/4
L: 1/16
K: G
D2 | B2B2A2A2 | G2D2D2
D2 | B2B2A2A2 | B4z2
GA | B2B2B2B2 | d4c2
B2 | B2A2A2A2 | e4d2
c2 | B2B2A2A2 | G4z2

